icons/link.svg

<svg viewBox="0 0 24 24" fill="currentColor" xmlns="http://www.w3.org/2000/svg"><path d="M18.3638 15.5355L16.9496 14.1213L18.3638 12.7071C20.3164 10.7545 20.3164 7.58866 18.3638 5.63604C16.4112 3.68341 13.2453 3.68341 11.2927 5.63604L9.87849 7.05025L8.46428 5.63604L9.87849 4.22182C12.6122 1.48815 17.0443 1.48815 19.778 4.22182C22.5117 6.95549 22.5117 11.3876 19.778 14.1213L18.3638 15.5355ZM15.5353 18.364L14.1211 19.7782C11.3875 22.5118 6.95531 22.5118 4.22164 19.7782C1.48797 17.0445 1.48797 12.6123 4.22164 9.87868L5.63585 8.46446L7.05007 9.87868L5.63585 11.2929C3.68323 13.2455 3.68323 16.4113 5.63585 18.364C7.58847 20.3166 10.7543 20.3166 12.7069 18.364L14.1211 16.9497L15.5353 18.364ZM14.8282 7.75736L16.2425 9.17157L9.17139 16.2426L7.75717 14.8284L14.8282 7.75736Z"/></svg>

<svg xmlns="http://www.w3.org/2000/svg" viewBox="0 0 24 24">
    <g>
        <path fill="none" d="M0 0h24v24H0z"/>
        <path d="M18.364 15.536L16.95 14.12l1.414-1.414a5 5 0 1 0-7.071-7.071L9.879 7.05 8.464 5.636 9.88 4.222a7 7 0 0 1 9.9 9.9l-1.415 1.414zm-2.828 2.828l-1.415 1.414a7 7 0 0 1-9.9-9.9l1.415-1.414L7.05 9.88l-1.414 1.414a5 5 0 1 0 7.071 7.071l1.414-1.414 1.415 1.414zm-.708-10.607l1.415 1.415-7.071 7.07-1.415-1.414 7.071-7.07z"/>
    </g>
</svg>
